X: 16
T:Moon & Seven Stars,The. WCa.16
T:Seven Stars. WCa.16
M:6/8
S:Wm. Calvert MS, 1812, Leyburn, Yorks.
R:jig
O:England
A:North Yorkshire
Z:vmp.Chris Partington, May 2003
K:D
d2"cr"A AGF|GAB"cr"A3|Bcd efg|fed cBA|!
d2A AGF|GABA3|Bcd efg|Adc"NB"d3::!
e2AA2f|efgf3|fgfe2d|cdBA3|!
BGB AFA|BGB AFA|Bcd efg|cdcd2:||
W:NB=Repeat marks absent from MS
